!!!COM: Jan Pieterszoon Sweelinck
!!!OTL: Canon a 3
!!!ONB: In der Quint oben, nach einem gantzen Tact.
!!!ONB: Canon at the fifth below, following a whole note.
!!!YOR: Sweelinck, "Werken" Vol. IX; Ed. Hermann Gehrmann
!!!YOR: Leipzig: Breitkopf & Haertel, 1901; p. 83.
**kern	**kern	**kern
*conseq	*CF	*guida
*k[]	*k[]	*k[]
*M4/2	*M4/2	*M4/2
=1-	=1-	=1-
1r	1D	2r
.	.	1A
1D	1A	.
.	.	[2d
=2	=2	=2
1G	1B	2d]
.	.	1B
1E	1G	.
.	.	[2c
=3	=3	=3
1F	1A	2c]
.	.	1d
1G	1B	.
.	.	[2d
=4	=4	=4
2.G	1d	4d]
.	.	4c
.	.	2B
4F	.	.
2E	1c	2.e
[2A	.	.
.	.	8d
.	.	8c
=5	=5	=5
4A]	1B	2d
8G	.	.
8F#	.	.
2G	.	2g
2c	1A	2e
2A	.	2f
=6	=6	=6
2B	1G	4r
.	.	4d
4r	.	2g
4G	.	.
2c	1A	4e
.	.	4d
4A	.	4c
4G	.	4B
=7	=7	=7
4F	1A	2c
4E	.	.
2F	.	2A
2D	1A	2r
2r	.	4a
.	.	4g
=8	=8	=8
4d	1D	4f
4c	.	4e
4B	.	4d
4A	.	4c
4G	1E	4B
4F	.	4A
4E	.	[2G
4D	.	.
=9	=9	=9
2.C	1G	4G]
.	.	4F
.	.	2E
4BB	.	.
2AA	1F	2.A
[2D	.	.
.	.	8G
.	.	8F
=10	=10	=10
4D]	1E	2G
8C	.	.
8BB	.	.
2C	.	4r
.	.	4c
4r	1D	4A
4F	.	8B
.	.	8c
4D	.	2d
8E	.	.
8F	.	.
=11	=11	=11
2G	1E	2B
2E	.	2c
2F	1D	2f
2B-	.	4e
.	.	4d
=12	=12	=12
4A	1F	2c
4G	.	.
2F	.	2d
2G	1E	2r
2r	.	[2B
=13	=13	=13
2.E	1G	4B]
.	.	4A
.	.	4G
4D	.	4F
4C	1A	2E
4BB	.	.
2AA	.	[2c
=14	=14	=14
1F	1A	2c]
.	.	2c
2F	1D	2A
2D	.	4G
.	.	4F
=15	=15	=15
4C	1E	2G
4BB	.	.
2C	.	2g
2c	1F	2.a
[2d	.	.
.	.	8g
.	.	8f
=16	=16	=16
4d]	1E	2.g
8c	.	.
8B	.	.
2.c	.	.
.	.	8f
.	.	8e
.	1D	2f
8B	.	.
8A	.	.
2B	.	4r
.	.	4d
=17	=17	=17
4r	1C	2e
4G	.	.
2A	.	4d
.	.	4c
4G	1E	4B
4F	.	4A
4E	.	2G
4D	.	.
=18	=18	=18
2C	1G	2r
2r	.	1e
1A	1F	.
.	.	2d
=19	=19	=19
2G	1E	2g
2c	.	2e
2A	1D	2f
2B	.	4r
.	.	4d
=20	=20	=20
4r	1E	2g
4G	.	.
2c	.	4r
.	.	4e
4r	1F	2a
4A	.	.
2d	.	4r
.	.	4f
=21	=21	=21
4r	1E	2g
4B	.	.
2c	.	4r
.	.	4e
4r	1D	2f
4A	.	.
2B	.	4e
.	.	4d
=22	=22	=22
[0A	1C#	2e
.	.	2e
.	[1D	[1f#
=23	=23	=23
0A]	0D]	0f#]
==	==	==
*-	*-	*-
!!!CDT: /1562/~5//-/1621/10/16
!!!ODE: Jonghmans Henderick Schijtman
!!!OCY: Nederlandse
!!!ODT: ?
!!!AFR: cantus firmus canon
!!!AST: polyphony
!!!AMT: simple quadruple
!!!AIN: organ
!!!YEP: David Huron and Denis Collins
!!!YEN: Canada
!!!EEV: 1.0
!!!RDT: 1995 June 3
!!!YED: 1995 August 31
